icons/svg/tourist/gallery.svg

<?xml version="1.0" encoding="UTF-8" standalone="no"?>
<!-- Created with Inkscape (http://www.inkscape.org/) -->

<svg
   xmlns:dc="http://purl.org/dc/elements/1.1/"
   xmlns:cc="http://creativecommons.org/ns#"
   xmlns:rdf="http://www.w3.org/1999/02/22-rdf-syntax-ns#"
   xmlns:svg="http://www.w3.org/2000/svg"
   xmlns="http://www.w3.org/2000/svg"
   xmlns:sodipodi="http://sodipodi.sourceforge.net/DTD/sodipodi-0.dtd"
   xmlns:inkscape="http://www.inkscape.org/namespaces/inkscape"
   version="1.0"
   width="580"
   height="580"
   id="svg2"
   sodipodi:version="0.32"
   inkscape:version="0.91 r"
   sodipodi:docname="gallery.svg"
   inkscape:output_extension="org.inkscape.output.svg.inkscape">
  <metadata
     id="metadata2975">
    <rdf:RDF>
      <cc:Work
         rdf:about="">
        <dc:format>image/svg+xml</dc:format>
        <dc:type
           rdf:resource="http://purl.org/dc/dcmitype/StillImage" />
        <cc:license
           rdf:resource="http://web.resource.org/cc/PublicDomain" />
        <dc:language>en</dc:language>
      </cc:Work>
    </rdf:RDF>
  </metadata>
  <sodipodi:namedview
     inkscape:window-height="739"
     inkscape:window-width="1332"
     inkscape:pageshadow="2"
     inkscape:pageopacity="0.0"
     guidetolerance="10.0"
     gridtolerance="10.0"
     objecttolerance="10.0"
     borderopacity="1.0"
     bordercolor="#666666"
     pagecolor="#ffffff"
     id="base"
     inkscape:zoom="0.32586207"
     inkscape:cx="241.20124"
     inkscape:cy="190.08062"
     inkscape:window-x="34"
     inkscape:window-y="1024"
     inkscape:current-layer="svg2"
     showgrid="false"
     inkscape:window-maximized="1"
     inkscape:snap-object-midpoints="true"
     inkscape:snap-center="true"
     inkscape:object-nodes="true"
     inkscape:snap-smooth-nodes="true" />
  <defs
     id="defs4">
    <inkscape:perspective
       sodipodi:type="inkscape:persp3d"
       inkscape:vp_x="0 : 290 : 1"
       inkscape:vp_y="0 : 1000 : 0"
       inkscape:vp_z="580 : 290 : 1"
       inkscape:persp3d-origin="290 : 193.33333 : 1"
       id="perspective2441" />
    <inkscape:perspective
       id="perspective3452"
       inkscape:persp3d-origin="30 : 20 : 1"
       inkscape:vp_z="60 : 30 : 1"
       inkscape:vp_y="0 : 1000 : 0"
       inkscape:vp_x="0 : 30 : 1"
       sodipodi:type="inkscape:persp3d" />
    <symbol
       viewBox="244.5 110 489 219.9"
       id="symbol-university">
      <path
         id="path4460"
         d="M79,43l57,119c0,0,21-96,104-96s124,106,124,106l43-133l82-17L0,17L79,43z" />
      <path
         id="path4462"
         d="M94,176l-21,39"
         stroke-width="20"
         stroke="#000000"
         fill="none" />
      <path
         id="path4464"
         d="M300,19c0,10.5-22.6,19-50.5,19S199,29.5,199,19s22.6-19,50.5-19S300,8.5,300,19z" />
      <path
         id="path4466"
         d="M112,216l-16-38L64,88c0,0-9-8-4-35s16-24,16-24"
         stroke-width="20"
         stroke="#000000"
         ill="none" />
    </symbol>
    <inkscape:perspective
       id="perspective4471"
       inkscape:persp3d-origin="372.04724 : 350.78739 : 1"
       inkscape:vp_z="744.09448 : 526.18109 : 1"
       inkscape:vp_y="0 : 1000 : 0"
       inkscape:vp_x="0 : 526.18109 : 1"
       sodipodi:type="inkscape:persp3d" />
    <inkscape:perspective
       id="perspective4668"
       inkscape:persp3d-origin="6 : 4 : 1"
       inkscape:vp_z="12 : 6 : 1"
       inkscape:vp_y="0 : 1000 : 0"
       inkscape:vp_x="0 : 6 : 1"
       sodipodi:type="inkscape:persp3d" />
    <inkscape:perspective
       id="perspective4904"
       inkscape:persp3d-origin="16 : 10.666667 : 1"
       inkscape:vp_z="32 : 16 : 1"
       inkscape:vp_y="0 : 1000 : 0"
       inkscape:vp_x="0 : 16 : 1"
       sodipodi:type="inkscape:persp3d" />
    <marker
       style="overflow:visible;"
       id="Arrow2Lend"
       refX="0.0"
       refY="0.0"
       orient="auto"
       inkscape:stockid="Arrow2Lend">
      <path
         transform="scale(1.1) rotate(180) translate(1,0)"
         d="M 8.7185878,4.0337352 L -2.2072895,0.016013256 L 8.7185884,-4.0017078 C 6.9730900,-1.6296469 6.9831476,1.6157441 8.7185878,4.0337352 z "
         style="font-size:12.0;fill-rule:evenodd;stroke-width:0.62500000;stroke-linejoin:round;"
         id="path4137" />
    </marker>
    <marker
       style="overflow:visible;"
       id="Arrow1Mend"
       refX="0.0"
       refY="0.0"
       orient="auto"
       inkscape:stockid="Arrow1Mend">
      <path
         transform="scale(0.4) rotate(180) translate(10,0)"
         style="fill-rule:evenodd;stroke:#000000;stroke-width:1.0pt;marker-start:none;"
         d="M 0.0,0.0 L 5.0,-5.0 L -12.5,0.0 L 5.0,5.0 L 0.0,0.0 z "
         id="path4125" />
    </marker>
    <marker
       style="overflow:visible"
       id="TriangleOutL"
       refX="0.0"
       refY="0.0"
       orient="auto"
       inkscape:stockid="TriangleOutL">
      <path
         transform="scale(0.8)"
         style="fill-rule:evenodd;stroke:#000000;stroke-width:1.0pt;marker-start:none"
         d="M 5.77,0.0 L -2.88,5.0 L -2.88,-5.0 L 5.77,0.0 z "
         id="path4214" />
    </marker>
    <marker
       style="overflow:visible;"
       id="Arrow1Lend"
       refX="0.0"
       refY="0.0"
       orient="auto"
       inkscape:stockid="Arrow1Lend">
      <path
         transform="scale(0.8) rotate(180) translate(12.5,0)"
         style="fill-rule:evenodd;stroke:#000000;stroke-width:1.0pt;marker-start:none;"
         d="M 0.0,0.0 L 5.0,-5.0 L -12.5,0.0 L 5.0,5.0 L 0.0,0.0 z "
         id="path4119" />
    </marker>
    <marker
       style="overflow:visible"
       id="Tail"
       refX="0.0"
       refY="0.0"
       orient="auto"
       inkscape:stockid="Tail">
      <g
         transform="scale(-1.2)"
         id="g4152">
        <path
           style="fill:none;fill-rule:evenodd;stroke:#000000;stroke-width:0.8;marker-start:none;marker-end:none;stroke-linecap:round"
           d="M -3.8048674,-3.9585227 L 0.54352094,0"
           id="path4154" />
        <path
           style="fill:none;fill-rule:evenodd;stroke:#000000;stroke-width:0.8;marker-start:none;marker-end:none;stroke-linecap:round"
           d="M -1.2866832,-3.9585227 L 3.0617053,0"
           id="path4156" />
        <path
           style="fill:none;fill-rule:evenodd;stroke:#000000;stroke-width:0.8;marker-start:none;marker-end:none;stroke-linecap:round"
           d="M 1.3053582,-3.9585227 L 5.6537466,0"
           id="path4158" />
        <path
           style="fill:none;fill-rule:evenodd;stroke:#000000;stroke-width:0.8;marker-start:none;marker-end:none;stroke-linecap:round"
           d="M -3.8048674,4.1775838 L 0.54352094,0.21974226"
           id="path4160" />
        <path
           style="fill:none;fill-rule:evenodd;stroke:#000000;stroke-width:0.8;marker-start:none;marker-end:none;stroke-linecap:round"
           d="M -1.2866832,4.1775838 L 3.0617053,0.21974226"
           id="path4162" />
        <path
           style="fill:none;fill-rule:evenodd;stroke:#000000;stroke-width:0.8;marker-start:none;marker-end:none;stroke-linecap:round"
           d="M 1.3053582,4.1775838 L 5.6537466,0.21974226"
           id="path4164" />
      </g>
    </marker>
    <marker
       style="overflow:visible"
       id="Arrow1Sstart"
       refX="0.0"
       refY="0.0"
       orient="auto"
       inkscape:stockid="Arrow1Sstart">
      <path
         transform="scale(0.2) translate(6,0)"
         style="fill-rule:evenodd;stroke:#000000;stroke-width:1.0pt;marker-start:none"
         d="M 0.0,0.0 L 5.0,-5.0 L -12.5,0.0 L 5.0,5.0 L 0.0,0.0 z "
         id="path4128" />
    </marker>
    <marker
       style="overflow:visible;"
       id="Arrow1Send"
       refX="0.0"
       refY="0.0"
       orient="auto"
       inkscape:stockid="Arrow1Send">
      <path
         transform="scale(0.2) rotate(180) translate(6,0)"
         style="fill-rule:evenodd;stroke:#000000;stroke-width:1.0pt;marker-start:none;"
         d="M 0.0,0.0 L 5.0,-5.0 L -12.5,0.0 L 5.0,5.0 L 0.0,0.0 z "
         id="path4131" />
    </marker>
    <marker
       style="overflow:visible"
       id="SemiCircleOut"
       refX="0.0"
       refY="0.0"
       orient="auto"
       inkscape:stockid="SemiCircleOut">
      <path
         transform="scale(0.6) translate(7.125493,0.763446)"
         style="fill-rule:evenodd;stroke:#000000;stroke-width:1.0pt;marker-start:none;marker-end:none"
         d="M -2.5,-0.80913858 C -2.5,1.9508614 -4.7400000,4.1908614 -7.5,4.1908614 L -7.5,-5.8091386 C -4.7400000,-5.8091386 -2.5,-3.5691386 -2.5,-0.80913858 z "
         id="path4235" />
    </marker>
    <marker
       style="overflow:visible;"
       id="Arrow2Send"
       refX="0.0"
       refY="0.0"
       orient="auto"
       inkscape:stockid="Arrow2Send">
      <path
         transform="scale(0.3) rotate(180) translate(-2.3,0)"
         d="M 8.7185878,4.0337352 L -2.2072895,0.016013256 L 8.7185884,-4.0017078 C 6.9730900,-1.6296469 6.9831476,1.6157441 8.7185878,4.0337352 z "
         style="font-size:12.0;fill-rule:evenodd;stroke-width:0.62500000;stroke-linejoin:round;"
         id="path4149" />
    </marker>
    <marker
       style="overflow:visible"
       id="TriangleOutS"
       refX="0.0"
       refY="0.0"
       orient="auto"
       inkscape:stockid="TriangleOutS">
      <path
         transform="scale(0.2)"
         style="fill-rule:evenodd;stroke:#000000;stroke-width:1.0pt;marker-start:none"
         d="M 5.77,0.0 L -2.88,5.0 L -2.88,-5.0 L 5.77,0.0 z "
         id="path4220" />
    </marker>
    <marker
       style="overflow:visible"
       id="CurveIn"
       refX="0.0"
       refY="0.0"
       orient="auto"
       inkscape:stockid="CurveIn">
      <path
         transform="scale(0.6)"
         style="fill-rule:evenodd;stroke:#000000;stroke-width:1.0pt;marker-start:none;marker-end:none;fill:none"
         d="M 4.6254930,-5.0456926 C 1.8654930,-5.0456926 -0.37450702,-2.8056926 -0.37450702,-0.045692580 C -0.37450702,2.7143074 1.8654930,4.9543074 4.6254930,4.9543074"
         id="path4238" />
    </marker>
    <marker
       orient="auto"
       refY="0"
       refX="0"
       id="InfiniteLineStart"
       inkscape:stockid="InfiniteLineStart"
       style="overflow:visible">
      <g
         transform="translate(-13,0)"
         id="g4298">
        <circle
           cx="3"
           cy="0"
           r="0.8"
           id="circle4300" />
        <circle
           cx="6.5"
           cy="0"
           r="0.8"
           id="circle4302" />
        <circle
           cx="10"
           cy="0"
           r="0.8"
           id="circle4304" />
      </g>
    </marker>
    <marker
       style="overflow:visible"
       id="StopS"
       refX="0.0"
       refY="0.0"
       orient="auto"
       inkscape:stockid="StopS">
      <path
         transform="scale(0.2)"
         style="fill:none;fill-opacity:0.75000000;fill-rule:evenodd;stroke:#000000;stroke-width:1.0pt"
         d="M 0.0,5.65 L 0.0,-5.65"
         id="path4229" />
    </marker>
    <marker
       style="overflow:visible"
       id="Arrow2Sstart"
       refX="0.0"
       refY="0.0"
       orient="auto"
       inkscape:stockid="Arrow2Sstart">
      <path
         transform="scale(0.3) translate(-2.3,0)"
         d="M 8.7185878,4.0337352 L -2.2072895,0.016013256 L 8.7185884,-4.0017078 C 6.9730900,-1.6296469 6.9831476,1.6157441 8.7185878,4.0337352 z "
         style="font-size:12.0;fill-rule:evenodd;stroke-width:0.62500000;stroke-linejoin:round"
         id="path4146" />
    </marker>
    <marker
       style="overflow:visible"
       id="DiamondS"
       refX="0.0"
       refY="0.0"
       orient="auto"
       inkscape:stockid="DiamondS">
      <path
         transform="scale(0.2)"
         style="fill-rule:evenodd;stroke:#000000;stroke-width:1.0pt;marker-start:none"
         d="M 0,-7.0710768 L -7.0710894,0 L 0,7.0710589 L 7.0710462,0 L 0,-7.0710768 z "
         id="path4202" />
    </marker>
    <marker
       orient="auto"
       refY="0"
       refX="0"
       id="RazorWire"
       inkscape:stockid="RazorWire">
       style=&quot;overflow:visible&quot;&gt;
      <path
   d="M 0.022727273,-0.74009011 L 0.022727273,0.69740989 L -7.7585227,3.0099099 L 10.678977,3.0099099 L 3.4914773,0.69740989 L 3.4914773,-0.74009011 L 10.741477,-2.8963401 L -7.7272727,-2.8963401 L 0.022727273,-0.74009011 z "
   style="fill:#808080;fill-opacity:1;fill-rule:evenodd;stroke:#000000;stroke-width:0.1pt"
   transform="scale(0.8,0.8)"
   id="path4286" />
</marker>
    <inkscape:perspective
       id="perspective5233"
       inkscape:persp3d-origin="16 : 10.666667 : 1"
       inkscape:vp_z="32 : 16 : 1"
       inkscape:vp_y="0 : 1000 : 0"
       inkscape:vp_x="0 : 16 : 1"
       sodipodi:type="inkscape:persp3d" />
    <inkscape:perspective
       id="perspective5412"
       inkscape:persp3d-origin="250 : 166.66667 : 1"
       inkscape:vp_z="500 : 250 : 1"
       inkscape:vp_y="0 : 1000 : 0"
       inkscape:vp_x="0 : 250 : 1"
       sodipodi:type="inkscape:persp3d" />
    <inkscape:perspective
       id="perspective5571"
       inkscape:persp3d-origin="202.85715 : 136.19048 : 1"
       inkscape:vp_z="405.71429 : 204.28572 : 1"
       inkscape:vp_y="0 : 1000 : 0"
       inkscape:vp_x="0 : 204.28572 : 1"
       sodipodi:type="inkscape:persp3d" />
    <inkscape:perspective
       id="perspective6552"
       inkscape:persp3d-origin="64 : 42.666667 : 1"
       inkscape:vp_z="128 : 64 : 1"
       inkscape:vp_y="0 : 1000 : 0"
       inkscape:vp_x="0 : 64 : 1"
       sodipodi:type="inkscape:persp3d" />
  </defs>
  <g
     id="g1327">
    <path
       d="M 66.275,1.768 C 24.94,1.768 1.704,23.139 1.704,66.804 L 1.704,516.927 C 1.704,557.771 22.599,579.156 63.896,579.156 L 515.92,579.156 C 557.227,579.156 578.149,558.841 578.149,516.927 L 578.149,66.804 C 578.149,24.203 557.227,1.768 514.628,1.768 C 514.624,1.768 66.133,1.625 66.275,1.768 z "
       style="fill:#111;stroke:#eee;stroke-width:3.40799999"
       id="path1329" />
  </g>
  <g
     id="g33"
     transform="matrix(1.5564873,0,0,1.5564873,-106.7259,-28.316302)">
    <circle
       style="fill:#ffffff"
       cx="172.48399"
       cy="50.883999"
       r="10.752"
       id="circle35" />
  </g>
  <path
     style="fill:none;fill-rule:evenodd;stroke:#ffffff;stroke-width:14.34336376;stroke-linecap:butt;stroke-linejoin:miter;stroke-miterlimit:4;stroke-dasharray:none;stroke-opacity:1"
     d="m 161.69256,50.883999 -54.3164,97.999971"
     id="path4547"
     inkscape:connector-curvature="0"
     sodipodi:nodetypes="cc" />
  <path
     style="fill:none;fill-rule:evenodd;stroke:#ffffff;stroke-width:14.34336376;stroke-linecap:butt;stroke-linejoin:miter;stroke-miterlimit:4;stroke-dasharray:none;stroke-opacity:1"
     d="m 161.44206,50.884 54.31639,97.99997"
     id="path4547-3"
     inkscape:connector-curvature="0"
     sodipodi:nodetypes="cc" />
  <path
     inkscape:connector-curvature="0"
     d="m 440.67823,67.84236 c -1.4211,0.1579 -2.68429,0.55201 -3.94749,1.18362 -2.52639,-1.2632 -8.92132,-1.2632 -11.4477,0 -1.2632,1.2632 -6.23703,3.71064 -7.50023,7.50022 -5.05277,0 -6.47388,0.1579 -10.26346,3.94748 -2.5264,2.52639 -3.94749,8.68447 -3.94749,8.68447 0,0 -7.34232,3.9475 -9.86872,10.26346 -2.52639,3.7896 0,11.44771 0,11.44771 0,0 -3.86853,3.78959 -5.13173,6.31599 -1.26319,1.26319 0,6.31597 0,6.31597 0,0 -1.26319,2.52639 0,6.31597 0,3.7896 3.94749,7.50023 3.94749,7.50023 0,0 -1.2632,3.71064 0,7.50022 0,2.5264 3.55273,5.13173 3.55273,5.13173 0,0 -3.78959,8.76343 6.31599,13.81621 0,6.31598 4.97383,11.44771 7.50022,11.44771 -2.52639,6.31598 1.34214,11.28981 5.13172,13.8162 0,8.84238 -4.81592,12.55301 -9.8687,13.81621 -3.7896,1.26319 -79.73922,12.78984 -79.73922,29.2114 36.63266,31.57989 50.52781,75.79172 50.52781,75.79172 l 126.31956,0 c 0,0 7.57918,-37.89587 50.52783,-75.79172 0,-12.63197 -77.05494,-29.13246 -82.10772,-30.39565 -5.05277,-2.52639 -8.68447,-5.13173 -8.68447,-11.44772 2.5264,-2.52638 4.81595,-6.31598 3.55275,-12.63194 2.52638,0 6.55282,-2.44745 9.07922,-7.50023 1.26319,-2.52639 -0.0758,-7.42127 1.1836,-8.68447 1.2632,-1.2632 3.86855,-3.78959 5.13174,-6.31597 1.26319,-3.7896 -0.0758,-6.55284 1.18361,-9.07923 0,-2.52639 2.28955,-3.63169 3.55275,-8.68447 1.26319,-6.31597 0,-12.63196 0,-12.63196 0,0 2.76323,-6.31597 2.76323,-12.63195 0,-6.31598 -5.05278,-10.10556 -6.31598,-12.63196 0,-2.52639 1.02699,-7.65812 -2.76324,-11.4477 -3.78958,-3.78959 -8.68446,-3.55274 -8.68446,-3.55274 0,0 0,-6.47388 -6.31599,-10.26346 -6.31598,-3.78959 -12.63196,-2.3685 -12.63196,-2.3685 0,0 -1.26318,-2.68429 -6.31596,-3.94748 -1.89481,0 -3.3159,-0.15791 -4.73699,0 z M 388.57141,330.4534 c 5.05278,7.57919 3.78958,153.54273 0,159.85871 l 101.05565,0 c -5.05279,-7.57918 -3.78959,-153.54272 0,-159.85871 z m -15.00044,180.5559 c -12.63197,0 -22.89542,10.26346 -22.89542,22.89542 l 0,2.36849 176.84738,0 0,-2.36849 c 0,-12.63196 -10.18452,-22.89542 -24.07966,-22.89542 z"
     id="path4"
     style="fill:#ffffff;fill-opacity:1;stroke:none"
     sodipodi:nodetypes="ccccsccccccccccccccccccccscccccscccscccccccccssccsss" />
  <path
     style="color:#000000;font-style:normal;font-variant:normal;font-weight:normal;font-stretch:normal;font-size:medium;line-height:normal;font-family:sans-serif;text-indent:0;text-align:start;text-decoration:none;text-decoration-line:none;text-decoration-style:solid;text-decoration-color:#000000;letter-spacing:normal;word-spacing:normal;text-transform:none;direction:ltr;block-progression:tb;writing-mode:lr-tb;baseline-shift:baseline;text-anchor:start;white-space:normal;clip-rule:nonzero;display:inline;overflow:visible;visibility:visible;opacity:1;isolation:auto;mix-blend-mode:normal;color-interpolation:sRGB;color-interpolation-filters:linearRGB;solid-color:#000000;solid-opacity:1;fill:#ffffff;fill-opacity:1;fill-rule:nonzero;stroke:none;stroke-width:17;stroke-linecap:butt;stroke-linejoin:miter;stroke-miterlimit:4;stroke-dasharray:none;stroke-dashoffset:0;stroke-opacity:1;marker:none;color-rendering:auto;image-rendering:auto;shape-rendering:auto;text-rendering:auto;enable-background:accumulate"
     d="m 53.195395,144.56055 28.326171,28.32617 162.062504,0 28.32617,-28.32617 -218.714845,0 z m -17.675782,17.67578 0,142.22656 34.359375,-34.36133 0,-73.5039 -34.359375,-34.36133 z m 254.066407,0 -34.35937,34.35937 0,73.50782 34.35937,34.35937 0,-142.22656 z M 81.521566,293.8125 l -28.326171,28.32617 218.714845,0 -28.32617,-28.32617 -162.062504,0 z"
     id="rect4578"
     inkscape:connector-curvature="0" />
</svg>

<svg width="580" height="580" viewBox="0 0 580 580" fill="none" xmlns="http://www.w3.org/2000/svg">
<g clip-path="url(#clip0)">
<path d="M66.2751 1.76815C24.9401 1.76815 1.7041 23.1391 1.7041 66.8041V516.927C1.7041 557.771 22.5991 579.156 63.8961 579.156H515.92C557.227 579.156 578.149 558.841 578.149 516.927V66.8041C578.149 24.2031 557.227 1.76815 514.628 1.76815C514.624 1.76815 66.1331 1.62515 66.2751 1.76815Z" fill="#111111" stroke="#EEEEEE" stroke-width="3.408"/>
<path d="M161.743 67.6191C170.986 67.6191 178.479 60.1265 178.479 50.8838C178.479 41.6411 170.986 34.1484 161.743 34.1484C152.5 34.1484 145.008 41.6411 145.008 50.8838C145.008 60.1265 152.5 67.6191 161.743 67.6191Z" fill="white"/>
<path d="M161.692 50.8838L107.376 148.884" stroke="white" stroke-width="14.3434"/>
<path d="M161.442 50.8838L215.758 148.884" stroke="white" stroke-width="14.3434"/>
<path d="M440.678 67.8423C439.257 68.0002 437.994 68.3943 436.731 69.0259C434.204 67.7627 427.809 67.7627 425.283 69.0259C424.02 70.2891 419.046 72.7366 417.783 76.5261C412.73 76.5261 411.309 76.684 407.519 80.4736C404.993 83 403.572 89.1581 403.572 89.1581C403.572 89.1581 396.229 93.1056 393.703 99.4215C391.177 103.211 393.703 110.869 393.703 110.869C393.703 110.869 389.835 114.659 388.571 117.185C387.308 118.448 388.571 123.501 388.571 123.501C388.571 123.501 387.308 126.028 388.571 129.817C388.571 133.607 392.519 137.317 392.519 137.317C392.519 137.317 391.256 141.028 392.519 144.818C392.519 147.344 396.072 149.949 396.072 149.949C396.072 149.949 392.282 158.713 402.388 163.766C402.388 170.082 407.361 175.213 409.888 175.213C407.361 181.529 411.23 186.503 415.02 189.029C415.02 197.872 410.204 201.583 405.151 202.846C401.361 204.109 325.412 215.636 325.412 232.057C362.044 263.637 375.939 307.849 375.939 307.849H502.259C502.259 307.849 509.838 269.953 552.787 232.057C552.787 219.425 475.732 202.925 470.679 201.661C465.626 199.135 461.995 196.53 461.995 190.214C464.521 187.687 466.811 183.898 465.547 177.582C468.074 177.582 472.1 175.134 474.627 170.082C475.89 167.555 474.551 162.66 475.81 161.397C477.073 160.134 479.679 157.607 480.942 155.081C482.205 151.292 480.866 148.528 482.126 146.002C482.126 143.476 484.415 142.37 485.678 137.317C486.941 131.001 485.678 124.685 485.678 124.685C485.678 124.685 488.442 118.369 488.442 112.054C488.442 105.738 483.389 101.948 482.126 99.4215C482.126 96.8952 483.153 91.7634 479.362 87.9738C475.573 84.1843 470.678 84.4211 470.678 84.4211C470.678 84.4211 470.678 77.9472 464.362 74.1576C458.046 70.3681 451.73 71.7891 451.73 71.7891C451.73 71.7891 450.467 69.1049 445.414 67.8417C443.519 67.8417 442.098 67.6838 440.677 67.8417L440.678 67.8423ZM388.571 330.453C393.624 338.033 392.361 483.996 388.571 490.312H489.627C484.574 482.733 485.837 336.769 489.627 330.453H388.571ZM373.571 511.009C360.939 511.009 350.676 521.273 350.676 533.905V536.273H527.523V533.905C527.523 521.273 517.338 511.009 503.443 511.009H373.571Z" fill="white"/>
<path d="M53.1953 144.561L81.5215 172.887H243.584L271.91 144.561H53.1953V144.561ZM35.5195 162.236V304.463L69.8789 270.102V196.598L35.5195 162.236ZM289.586 162.236L255.227 196.596V270.104L289.586 304.463V162.236ZM81.5215 293.812L53.1953 322.139H271.91L243.584 293.812H81.5215Z" fill="white"/>
</g>
<defs>
<clipPath id="clip0">
<path d="M0 0H580V580H0V0Z" fill="white"/>
</clipPath>
</defs>
</svg>
